X:1
T:Graham, 86.866
T:Graham, 86.866
T:Robert Frederick Smith, 19th Century
T:Public Domain Courtesy of the Cyber Hymnal™
C:Robert Frederick Smith, 19th Century
Z:Public Domain
Z:Courtesy of the Cyber Hymnal™
%%score ( 1 2 ) ( 3 4 )
L:1/8
Q:1/4=110
M:4/4
K:F
V:1 treble 
V:2 treble 
V:3 bass 
V:4 bass 
V:1
 [FA]2 (G[FA]) [FB]2 [FA]2 | [Gc]2 [FB]2 [FA]4 |"^Slow" F2 z [DF] [EA]2 [EG]2 | [DF]4 E4 | %4
"^A tempo" [CF]2 (Ac) [Af]2 [Ge]2 | [Ad]2 [Ac]2 [GB]4 | [EA]3 [EG] (FG) ([FA][GB]) | %7
 c2 ([Fd][Ae]) [Ff]4 | [Ff]2 (ed) (dc) (BA) | G4 [FA]4 |] %10
V:2
 x2 G x5 | x8 | x8 | x4 (^C2 =C2) | x2 F2 x4 | x8 | x4 D2 x2 | A E x6 | x2 F2 F2 F2 | F2 E2 x4 |] %10
V:3
 [F,C]2 (B,C) [F,D]2 [F,C]2 | [F,E]2 [F,D]2 [F,C]4 | [D,D]2 z [D,A,] [G,,B,]2 [G,,B,]2 | %3
 [A,,A,]4 [A,,A,]2 [C,B,]2 | [F,A,]2 [F,C]2 [D,D]2 [E,^C]2 | [F,D]2 [^F,D]2 [G,D]4 | %6
 [A,^C]3 [A,C] [B,D]2 ([A,=C][G,B,]) | ([F,A,][E,G,][D,F,][^C,E,]) D,4 | B,2 (CB,) (B,A,) (DC) | %9
 [C,C]4 [F,C]4 |] %10
V:4
 x2 F,2 x4 | x8 | x8 | x8 | x8 | x8 | x8 | x4 D,4 | B,2 B,2 F,2 F,2 | x8 |] %10

